X: 9689
T: Dear Tobacco
R: reel
M: 4/4
K: Gmajor
|:eAAc BGA2|eAAf g2 (3fed|eAAc BGA2|G2GB dedB:|
|:efge fga2|efge dedB|efge fga2|G2GB dedB:|

